X:69
T:Calebria. RHu.070
S:R.Hughes MS,1823,Whitchurch,Shrops.
A:Whitchurch , Shropshire
Z:Neil Brookes 2006
M:2/4
L:1/8
Q:1/4=140
R:Country Dance
K:G
dgga|b2ag|b2ag|faa2|dgga|b2ag|eagf|g4::!
g2fe|dBB2|cABG|FAA2|g2fe|dBB2|cAGF|G2G2:|

